X:53
M:4/4
L:1/4
K:C
G2 A G | F G c d | !fermata!c2 z c | G A c d | e e !fermata!d2 | z d e c | A G B c | !fermata!d2 z !sintro!G | c A F (A- | A G) G2- | G2 !fermata!G2 !eintro!|]
